!!!COM: Palestrina, Giovanni Perluigi da
!!!OPR: Benedicta es
!!!OTL: Agnus I
**kern	**kern	**kern	**kern	**kern	**kern
*Ibass	*Ibass	*Itenor	*Icalto	*Icalto	*Icant
!Bassus 2	!Bassus 1	!Tenor	!Altus 2	!Altus 1	!Cantus
*clefF4	*clefF4	*clefGv2	*clefG2	*clefG2	*clefG2
*k[]	*k[]	*k[]	*k[]	*k[]	*k[]
*G:mix	*G:mix	*G:mix	*G:mix	*G:mix	*G:mix
*M4/2	*M4/2	*M4/2	*M4/2	*M4/2	*M4/2
=1	=1	=1	=1	=1	=1
0r	0r	0r	0r	1G	0r
.	.	.	.	1G	.
=2	=2	=2	=2	=2	=2
0r	0r	0r	1c	1A	0r
.	.	.	1c	1A	.
=3	=3	=3	=3	=3	=3
0r	0r	0r	1d	1B	0r
.	.	.	1d	1G	.
=4	=4	=4	=4	=4	=4
0r	0r	0r	1e	2.c	1g
.	.	.	.	4d	.
.	.	.	2c	4e	1g
.	.	.	.	4f	.
.	.	.	2e	[2g	.
=5	=5	=5	=5	=5	=5
0r	0r	0r	1d	2g]	1a
.	.	.	.	4f#	.
.	.	.	.	4e	.
.	.	.	2r	1f#	1a
.	.	.	2d	.	.
=6	=6	=6	=6	=6	=6
1r	0r	1G	1d	2.g	1b
.	.	.	.	4f	.
1C	.	1G	1e	4e	1g
.	.	.	.	4d	.
.	.	.	.	[2c	.
=7	=7	=7	=7	=7	=7
1C	0r	1A	1e	4c]	1cc
.	.	.	.	4B	.
.	.	.	.	4A	.
.	.	.	.	4G	.
1D	.	1A	1f	4F	1a
.	.	.	.	4D	.
.	.	.	.	[2d	.
=8	=8	=8	=8	=8	=8
1D	0r	1B	1d	2d]	2.dd
.	.	.	.	1B	.
.	.	.	.	.	4cc
1E	.	1G	[1g	.	4b
.	.	.	.	.	4a
.	.	.	.	[2e	4g
.	.	.	.	.	4f
=9	=9	=9	=9	=9	=9
2.C	1C	1.c	2g]	4e]	2.e
.	.	.	.	4d	.
.	.	.	2g	2c	.
4D	.	.	.	.	4f
4E	1C	.	1e	1G	1g
4F	.	.	.	.	.
[2G	.	2B	.	.	.
=10	=10	=10	=10	=10	=10
2G]	1D	0A	0d	1r	0r
4F#	.	.	.	.	.
4E	.	.	.	.	.
1F#	1D	.	.	1d	.
=11	=11	=11	=11	=11	=11
2.G	1E	[0G	0r	2B	1r
.	.	.	.	2.e	.
4F	.	.	.	.	.
2.E	2.C	.	.	.	1g
.	.	.	.	4f	.
.	.	.	.	[2g	.
4D	4D	.	.	.	.
=12	=12	=12	=12	=12	=12
2.C	4E	1G]	1c	4g]	1g
.	4F	.	.	4f	.
.	1G	.	.	4e	.
4BB	.	.	.	4d	.
1AA	.	1r	1c	4c	1a
.	.	.	.	4B	.
.	4F#	.	.	4A	.
.	4E	.	.	4G	.
=13	=13	=13	=13	=13	=13
1D	1F#	1r	1d	1A	1a
1GG	1G	1G	1d	1G	1b
=14	=14	=14	=14	=14	=14
2.C	1.E	1G	1e	2r	1g
.	.	.	.	1g	.
4BB	.	.	.	.	.
1AA	.	1A	2.c	.	[1cc
.	2F	.	.	2f	.
.	.	.	4d	.	.
=15	=15	=15	=15	=15	=15
1GG	1G	1B	4e	2e	2cc]
.	.	.	4f	.	.
.	.	.	1g	2d	2b
1r	2C	2c	.	2e	1a
.	2D	2A	2f#	[2d	.
=16	=16	=16	=16	=16	=16
1G	0GG	2.B	2g	4d]	[0g
.	.	.	.	4c	.
.	.	.	4G	4B	.
.	.	4c	4A	4A	.
1G	.	2d	4B	1G	.
.	.	.	4c	.	.
.	.	2B	[2d	.	.
=17	=17	=17	=17	=17	=17
2E	1r	1e	4d]	1r	1g]
.	.	.	4c	.	.
2C	.	.	1c	.	.
1G	2r	1d	.	1d	1r
.	2G	.	2B	.	.
=18	=18	=18	=18	=18	=18
1C	2G	2.c	1c	1e	1g
.	2C	.	.	.	.
.	.	8B	.	.	.
.	.	8A	.	.	.
1r	2E	2G	1r	[1c	2g
.	2F	[2A	.	.	2c
=19	=19	=19	=19	=19	=19
0r	2F	2A]	1r	1c]	2f
.	2C	1G	.	.	2e
.	1D	.	2r	1A	1d
.	.	2F#	2d	.	.
=20	=20	=20	=20	=20	=20
2r	1GG	1G	2d	2.B	0r
2G	.	.	2G	.	.
.	.	.	.	4c	.
2G	1G	1r	2B	2d	.
2C	.	.	[2c	[2e	.
=21	=21	=21	=21	=21	=21
2E	2C	0r	2c]	2e]	0r
2F	2D	.	2A	1d	.
2G	2GG	.	2B	.	.
2E	[2G	.	4A	2c#	.
.	.	.	4G	.	.
=22	=22	=22	=22	=22	=22
0D	2G]	1r	0A	[0d	0a
.	4F#	.	.	.	.
.	4E	.	.	.	.
.	1F#	2r	.	.	.
.	.	2d	.	.	.
=23	=23	=23	=23	=23	=23
1GG	1G	2d	4G	1d]	1b
.	.	.	4A	.	.
.	.	2G	4B	.	.
.	.	.	4c	.	.
1r	1r	2B	2d	1r	[1g
.	.	[2c	[2e	.	.
=24	=24	=24	=24	=24	=24
0r	0r	2c]	2e]	1r	1g]
.	.	2G	1d	.	.
.	.	1A	.	2r	1e
.	.	.	2c#	2A	.
=25	=25	=25	=25	=25	=25
1r	2r	0D	[0d	2A	2.f
.	2A	.	.	2D	.
.	.	.	.	.	4g
1D	2A	.	.	2.F	4a
.	.	.	.	.	4b-
.	2D	.	.	.	[2a
.	.	.	.	4G	.
=26	=26	=26	=26	=26	=26
2D	2F	1r	0d]	2A	4a]
.	.	.	.	.	4g
2GG	2G	.	.	2B-	1g
1D	1A	1A	.	2A	.
.	.	.	.	2d	2f#
=27	=27	=27	=27	=27	=27
1GG	0G	1B	1r	2d	1g
.	.	.	.	2G	.
1GG	.	[1G	1d	1B	2r
.	.	.	.	.	2g
=28	=28	=28	=28	=28	=28
0C	2.E	1G]	1e	2.c	2g
.	.	.	.	.	2c
.	4F	.	.	4d	.
.	1G	1E	[1c	4e	1cc
.	.	.	.	4f	.
.	.	.	.	2g	.
=29	=29	=29	=29	=29	=29
0FF	1A	2.F	1c]	1f	2.a
.	.	4G	.	.	4b
.	1F	4A	1A	1f	1cc
.	.	4B-	.	.	.
.	.	[2A	.	.	.
=30	=30	=30	=30	=30	=30
0r	1G	2A]	2.B	1d	1b
.	.	1G	.	.	.
.	.	.	4c	.	.
.	1D	.	4d	2r	1a
.	.	.	4e	.	.
.	.	2F#	[2d	2d	.
=31	=31	=31	=31	=31	=31
1r	2E	1G	2d]	2B	[0g
.	2C	.	1c	2e	.
1GG	1G	2r	.	1d	.
.	.	2G	2B	.	.
=32	=32	=32	=32	=32	=32
0C	2.E	2G	1c	2e	0g]
.	.	2C	.	4c	.
.	4F	.	.	4d	.
.	4G	2.c	1r	4e	.
.	4A	.	.	4f	.
.	[2G	.	.	[2e	.
.	.	4B	.	.	.
=33	=33	=33	=33	=33	=33
1D	2G]	1A	1r	2e]	0r
.	2F#	.	.	1d	.
1E	1G	1G	2r	.	.
.	.	.	[2g	2c#	.
=34	=34	=34	=34	=34	=34
1D	0r	0A	2g]	1d	2r
.	.	.	2f	.	1dd
1r	.	.	1e	1r	.
.	.	.	.	.	2cc
=35	=35	=35	=35	=35	=35
0r	0r	0r	2d	0r	2b
.	.	.	2f	.	2a
.	.	.	2e	.	2g
.	.	.	[2d	.	2f
=36	=36	=36	=36	=36	=36
0r	0r	1r	4d]	2r	1e
.	.	.	4c	.	.
.	.	.	2c	1g	.
.	.	2r	4B	.	1d
.	.	.	4c	.	.
.	.	[2d	2d	2f	.
=37	=37	=37	=37	=37	=37
0r	0r	2d]	1A	1e	2.a
.	.	2c	.	.	.
.	.	.	.	.	4g
.	.	2B	2.d	2d	2g
.	.	2A	.	2f	2a
.	.	.	4c	.	.
=38	=38	=38	=38	=38	=38
0r	1r	2G	2B	2e	4b
.	.	.	.	.	4cc
.	.	2F	2A	1d	2dd
.	2r	1E	2B	.	1g
.	[2G	.	2G	2c#	.
=39	=39	=39	=39	=39	=39
0r	2G]	1D	1A	1d	0r
.	2F	.	.	.	.
.	2.E	2.G	2.c	1r	.
.	4D	4F	4B	.	.
=40	=40	=40	=40	=40	=40
0r	2C	2E	2A	1r	0r
.	2BB	2D	1G	.	.
.	1AA	1C	.	2r	.
.	.	.	2F#	[2c	.
=41	=41	=41	=41	=41	=41
2r	1GG	0D	1G	2c]	0r
1G	.	.	.	2B	.
.	1r	.	1d	1A	.
2F	.	.	.	.	.
=42	=42	=42	=42	=42	=42
2.E	2.G	2r	2e	2G	0r
.	.	2G	2B	2B	.
4D	4F	.	.	.	.
2C	2E	2A	2c	2A	.
2BB	2D	2B	2d	[2G	.
=43	=43	=43	=43	=43	=43
1AA	1C	2c	2e	2G]	2r
.	.	2A	2c	2F#	1cc
1GG	[1D	2.B	2r	1G	.
.	.	.	[2g	.	2b
.	.	4c	.	.	.
=44	=44	=44	=44	=44	=44
2r	1D]	1d	2g]	1r	1a
2D	.	.	2f	.	.
2E	1r	1G	2e	2.g	2g
2BB	.	.	2d	.	2b
.	.	.	.	4f	.
=45	=45	=45	=45	=45	=45
1C	0r	1r	2c	2e	2a
.	.	.	2B	2e	1g
1D	.	2r	1A	1d	.
.	.	[2d	.	.	2f#
=46	=46	=46	=46	=46	=46
1GG	1.G	2d]	1G	0B	0g
.	.	2d	.	.	.
[1G	.	1d	2r	.	.
.	2G	.	[2d	.	.
=47	=47	=47	=47	=47	=47
2G]	1G	2B	2d]	2r	0b
2G	.	4G	2d	1g	.
.	.	4A	.	.	.
1G	1GG	4B	1d	.	.
.	.	4c	.	.	.
.	.	2d	.	2g	.
=48	=48	=48	=48	=48	=48
[0C	1r	2c	2e	1g	0cc
.	.	2.e	2.g	.	.
.	[1C	.	.	2e	.
.	.	4d	4f	.	.
.	.	4c	4e	[2g	.
.	.	4B	4d	.	.
=49	=49	=49	=49	=49	=49
0C]	2C]	1c	2e	4g]	0cc
.	.	.	.	4f	.
.	2C	.	2.c	4e	.
.	.	.	.	4d	.
.	1C	2r	.	1e	.
.	.	.	4B	.	.
.	.	[2c	2G	.	.
=50	=50	=50	=50	=50	=50
2r	1FF	2c]	2.A	0f	0a
1F	.	2c	.	.	.
.	.	.	4G	.	.
.	2.F	1c	4A	.	.
.	.	.	4B	.	.
2F	.	.	[2c	.	.
.	4G	.	.	.	.
=51	=51	=51	=51	=51	=51
1F	2A	2A	4c]	0c	1r
.	.	.	4B	.	.
.	1F	2.c	4A	.	.
.	.	.	4B	.	.
1C	.	.	4c	.	[1g
.	.	4B	4d	.	.
.	2E	2G	4e	.	.
.	.	.	4c	.	.
=52	=52	=52	=52	=52	=52
1r	0D	0A	1d	2r	2g]
.	.	.	.	2d	4f#
.	.	.	.	.	4e
1D	.	.	1r	2d	1f#
.	.	.	.	2d	.
=53	=53	=53	=53	=53	=53
1.E	[0C	1c	1e	1G	[0g
.	.	2.C	1e	2.g	.
2F	.	.	.	.	.
.	.	4D	.	4f	.
=54	=54	=54	=54	=54	=54
1G	0C]	2.E	2.c	2.e	1g_
.	.	4F	4d	4d	.
1C	.	1G	1e	1c	1g_
=55	=55	=55	=55	=55	=55
0D	0GG	0G	0d	0B	0g]
==	==	==	==	==	==
*-	*-	*-	*-	*-	*-
!!!CDT: 1525/^1526/-1594/2/2
!!!OCY: Italia
!!!AGN: Mass (Parody)
!!!AST: renaissance, vocal
!!!ASW: Motet 1520 (Josquin)
!!!PWK: Masses, Book 11
!!!RNB: Cadence finals: D
!!!YOR: Le Opere Complete, v. 28, p. 222
!!!YOO: Rome, Italy: Fratelli Scalera
!!!END: 1992//
!!!EED: John Miller
!!!YEC: Copyright 2000, John Miller
!!!YEN: United States of America
!!!YEM: Rights to all derivative electronic formats reserved.
!!!YEM: Refer to licensing agreement for further details.
!!!YEM: This file must be accompanied by the licensing agreement.
!!!YEM: A copy of the licensing agreement may be found at http://www.music-cog.ohio-state.edu/HumdrumDatabases/Palestrina/license.txt
!!!EMD: converted to Humdrum by Bret Aarden
